X: 1
T: Hayfield House
C: Ronald Cooper
F: http://www.thesession.org/tunes/display/7334 2009-3-4
M: 4/4
L: 1/8
R: reel
K: A
A2 | A2 EA c2 Ac | eagf edcA | BE E/E/E BecA | Be^de =dBGE |
A2 EA c2 Ac | eagf edcA | BE E/E/E BecA | BEGB A2 :|
cd | eAce a2 gf | eagf edcA | BE E/E/E BecA | BAGB d2
cd | eAce a2 gf | eagf edcA | BE E/E/E BecA | BAGB A2
cd | eAce a2 gf | eagf edcA | BE E/E/E BecA | Be^de =dBGE |
A2 EA c2 Ac | eagf edcA | BE E/E/E BecA | BEGB A2 |]

%%sep 1 1 500

